; generated by PrusaSlicer 2.5.0+MacOS-arm64 on 2023-03-09 at 15:09:20 UTC


;
;
; 

; external perimeters extrusion width = 0.45mm
; perimeters extrusion width = 0.45mm
; infill extrusion width = 0.45mm
; solid infill extrusion width = 0.45mm
; top infill extrusion width = 0.40mm
; first layer extrusion width = 0.42mm

; external perimeters extrusion width = 0.45mm
; perimeters extrusion width = 0.45mm
; infill extrusion width = 0.45mm
; solid infill extrusion width = 0.45mm
; top infill extrusion width = 0.40mm
; first layer extrusion width = 0.42mm

M73 P0 R13
M73 Q0 S13
M201 X1000 Y1000 Z200 E5000 ; sets maximum accelerations, mm/sec^2
M203 X200 Y200 Z12 E120 ; sets maximum feedrates, mm / sec
M204 P1250 R1250 T1250 ; sets acceleration (P, T) and retract acceleration (R), mm/sec^2
M205 X8.00 Y8.00 Z0.40 E4.50 ; sets the jerk limits, mm/sec
M205 S0 T0 ; sets the minimum extruding and travel feed rate, mm/sec
M107
;TYPE:Custom
M862.3 P "MK3S" ; printer model check
M862.1 P0.4 ; nozzle diameter check
M115 U3.11.0 ; tell printer latest fw version
G90 ; use absolute coordinates
M83 ; extruder relative mode
M104 S215 ; set extruder temp
M140 S60 ; set bed temp
M190 S60 ; wait for bed temp
M109 S215 ; wait for extruder temp
G28 W ; home all without mesh bed level
G80 ; mesh bed leveling

G1 Z0.2 F720
G1 Y-3 F1000 ; go outside print area
G92 E0
G1 X60 E9 F1000 ; intro line
G1 X100 E12.5 F1000 ; intro line

G92 E0
M221 S95

; Don't change E values below. Excessive value can damage the printer.
M907 E430 ; set extruder motor current
G21 ; set units to millimeters
G90 ; use absolute coordinates
M83 ; use relative distances for extrusion
M900 K0.05 ; Filament gcode LA 1.5
M900 K30 ; Filament gcode LA 1.0
M107
;LAYER_CHANGE
;Z:0.2
;HEIGHT:0.2
;BEFORE_LAYER_CHANGE
G92 E0.0
;0.2


G1 E-.8 F2100
G1 Z.4 F720
;AFTER_LAYER_CHANGE
;0.2
G1 X118.241 Y89.767 F10800
G1 Z.2 F720
G1 E.8 F2100
M204 S800
;TYPE:Skirt/Brim
;WIDTH:0.42
G1 F1200
G1 X118.965 Y88.872 E.0361
G1 X120.267 Y87.741 E.05409
G1 X121.513 Y87.022 E.04509
G1 X122.588 Y86.609 E.0361
G1 X124.281 Y86.28 E.05409
G1 X125.719 Y86.28 E.04509
G1 X126.856 Y86.46 E.0361
G1 X128.224 Y86.904 E.04509
M73 Q1 S13
G1 X129.25 Y87.427 E.0361
M73 P0 R12
G1 X130.078 Y88.001 E.03158
G1 X131.035 Y88.872 E.04059
G1 X131.759 Y89.767 E.0361
G1 X132.478 Y91.013 E.04509
M73 P1 R12
G1 X132.891 Y92.088 E.0361
G1 X133.1 Y92.926 E.02708
G1 X135.245 Y106.751 E.43868
G1 X135.254 Y120 E.4154
G1 X135.138 Y120.921 E.0291
M73 Q1 S12
G1 X134.676 Y122 E.03682
G1 X133.902 Y122.884 E.03682
G1 X132.894 Y123.485 E.03682
G1 X132.035 Y123.715 E.02786
G1 X118.5 Y123.754 E.42439
G1 X117.579 Y123.638 E.0291
G1 X116.5 Y123.176 E.03682
G1 X115.883 Y122.691 E.0246
G1 X115.551 Y122.321 E.0156
G1 X114.978 Y121.296 E.03682
G1 X114.802 Y120.639 E.02134
G1 X114.746 Y120 E.02011
G1 X114.755 Y106.751 E.4154
G1 X116.96 Y92.644 E.44771
G1 X117.404 Y91.276 E.04509
G1 X118.211 Y89.82 E.05221
M204 S1000
G1 X118.54 Y90.003 F10800
M204 S800
G1 F1200
G1 X119.232 Y89.139 E.03469
G1 X120.473 Y88.057 E.05162
G1 X121.684 Y87.358 E.04385
G1 X122.685 Y86.973 E.03363
G1 X124.301 Y86.656 E.05162
G1 X125.699 Y86.656 E.04385
G1 X126.759 Y86.824 E.03363
G1 X128.089 Y87.256 E.04385
G1 X129.045 Y87.743 E.03363
G1 X130.176 Y88.565 E.04385
G1 X130.935 Y89.324 E.03363
G1 X131.757 Y90.455 E.04385
G1 X132.244 Y91.411 E.03363
G1 X132.676 Y92.741 E.04385
G1 X134.868 Y106.771 E.44523
G1 X134.877 Y120 E.41479
G1 X134.774 Y120.823 E.02601
G1 X134.36 Y121.795 E.03312
G1 X133.665 Y122.591 E.03312
G1 X132.759 Y123.133 E.03312
G1 X131.976 Y123.342 E.02539
G1 X118.5 Y123.377 E.42254
G1 X117.677 Y123.274 E.02601
G1 X116.705 Y122.86 E.03312
M73 Q2 S12
G1 X115.844 Y122.084 E.03636
G1 X115.33 Y121.161 E.03312
G1 X115.174 Y120.58 E.01886
G1 X115.123 Y120 E.01825
G1 X115.132 Y106.771 E.41478
G1 X117.324 Y92.741 E.44523
M73 P2 R12
G1 X117.756 Y91.411 E.04385
G1 X118.511 Y90.055 E.04866
M204 S1000
; printing object croc_charm_prepared.stl_1 id:0 copy 0
;WIPE_START
G1 F8640
G1 X119.232 Y89.139 E-.26915
G1 X120.473 Y88.057 E-.38012
G1 X120.888 Y87.817 E-.11072
;WIPE_END
G1 E-.04 F2100
G1 Z.6 F720
G1 X131.336 Y107.167 F10800
G1 Z.2 F720
G1 E.8 F2100
M204 S800
;TYPE:Perimeter
;WIDTH:0.419999
G1 F1200
G1 X131.336 Y119.836 E.39724
G1 X118.664 Y119.836 E.39731
G1 X118.664 Y107.164 E.39731
G1 X131.276 Y107.167 E.39543
M204 S1000
G1 X131.649 Y106.866 F10800
M204 S800
G1 F1200
G1 X131.713 Y107.051 E.00613
G1 X131.713 Y119.927 E.40374
G1 X131.649 Y120.134 E.00677
G1 X131.435 Y120.213 E.00714
G1 X118.573 Y120.213 E.40329
G1 X118.366 Y120.149 E.00677
G1 X118.287 Y119.935 E.00714
G1 X118.287 Y107.051 E.40397
G1 X118.351 Y106.866 E.00613
G1 X118.565 Y106.787 E.00714
G1 X131.475 Y106.79 E.40477
G1 X131.594 Y106.842 E.00408
M204 S1000
G1 X131.989 Y106.701 F10800
M204 S800
;TYPE:External perimeter
G1 F1200
G1 X132.059 Y106.823 E.0044
G1 X132.09 Y107.022 E.00631
G1 X132.09 Y119.903 E.40388
G1 X132.059 Y120.177 E.00866
M73 P3 R12
M73 Q3 S12
G1 X131.935 Y120.392 E.00777
G1 X131.738 Y120.535 E.00762
G1 X131.474 Y120.59 E.00846
G1 X118.597 Y120.59 E.40375
G1 X118.323 Y120.559 E.00866
G1 X118.108 Y120.435 E.00777
G1 X117.965 Y120.238 E.00762
G1 X117.91 Y119.974 E.00846
G1 X117.91 Y107.022 E.40612
G1 X117.941 Y106.823 E.00631
G1 X118.065 Y106.608 E.00777
G1 X118.262 Y106.465 E.00762
G1 X118.526 Y106.41 E.00846
G1 X131.43 Y106.412 E.40459
G1 X131.736 Y106.464 E.00975
G1 X131.935 Y106.608 E.0077
G1 X131.959 Y106.649 E.00148
M204 S1000
G1 X131.931 Y106.829 F10800
;WIPE_START
G1 F8640
G1 X132.059 Y106.823 E-.04628
G1 X132.09 Y107.022 E-.04644
G1 X132.09 Y109.911 E-.66728
;WIPE_END
G1 E-.04 F2100
G1 Z.6 F720
G1 X128.683 Y111.552 F10800
G1 Z.2 F720
G1 E.8 F2100
M204 S800
;TYPE:Perimeter
G1 F1200
G1 X128.926 Y112.254 E.02329
G1 X129.03 Y113.143 E.02806
G1 X128.944 Y114.228 E.03414
G1 X128.703 Y115.041 E.02659
G1 X128.302 Y115.777 E.02629
G1 X127.759 Y116.411 E.02616
G1 X127.09 Y116.923 E.02642
G1 X126.333 Y117.283 E.02629
G1 X125.517 Y117.478 E.02629
G1 X124.75 Y117.531 E.02411
G1 X123.95 Y117.463 E.02517
G1 X123.112 Y117.218 E.02738
G1 X122.332 Y116.794 E.02783
G1 X121.911 Y116.444 E.01717
G1 X121.515 Y116.059 E.01733
G1 X121.094 Y115.477 E.02251
G1 X120.7 Y114.634 E.02917
G1 X120.488 Y113.714 E.02962
G1 X120.474 Y112.755 E.03007
G1 X120.644 Y111.879 E.02798
G1 X120.898 Y111.257 E.02107
G1 X121.167 Y110.803 E.01653
G1 X121.484 Y110.4 E.01607
G1 X122.168 Y109.769 E.02919
G1 X123.043 Y109.265 E.03167
G1 X123.61 Y109.074 E.01875
G1 X124.481 Y108.957 E.02756
G1 X125.056 Y108.966 E.01803
G1 X125.946 Y109.136 E.0284
G1 X126.806 Y109.492 E.02919
G1 X127.561 Y110.012 E.02874
G1 X127.947 Y110.41 E.01741
G1 X128.297 Y110.83 E.01713
G1 X128.663 Y111.495 E.02381
M204 S1000
G1 X128.335 Y111.68 F10800
M204 S800
G1 F1200
G1 X128.567 Y112.368 E.02277
G1 X128.655 Y113.177 E.0255
G1 X128.568 Y114.192 E.03195
G1 X128.345 Y114.924 E.024
G1 X127.975 Y115.589 E.02383
G1 X127.479 Y116.159 E.0237
G1 X126.869 Y116.618 E.02395
G1 X126.179 Y116.939 E.02383
G1 X125.439 Y117.109 E.02383
G1 X124.729 Y117.154 E.02228
G1 X123.987 Y117.088 E.02338
G1 X123.227 Y116.858 E.02489
G1 X122.52 Y116.467 E.02534
G1 X121.9 Y115.927 E.02579
G1 X121.399 Y115.256 E.02624
G1 X121.045 Y114.482 E.02669
G1 X120.857 Y113.637 E.02714
G1 X120.851 Y112.758 E.02759
G1 X121.012 Y111.958 E.02556
G1 X121.243 Y111.409 E.01867
G1 X121.53 Y110.943 E.01718
G1 X121.878 Y110.537 E.01674
G1 X122.42 Y110.049 E.02288
G1 X123.223 Y109.596 E.0289
G1 X123.718 Y109.436 E.01632
G1 X124.525 Y109.331 E.02554
G1 X125.043 Y109.342 E.01622
G1 X125.869 Y109.505 E.02642
G1 X126.654 Y109.837 E.02671
G1 X127.34 Y110.317 E.02626
G1 X127.9 Y110.921 E.02582
G1 X128.316 Y111.623 E.0256
M204 S1000
G1 X127.986 Y111.803 F10800
M204 S800
;TYPE:External perimeter
G1 F1200
G1 X128.208 Y112.483 E.02242
G1 X128.279 Y113.211 E.02294
G1 X128.193 Y114.157 E.02976
G1 X127.986 Y114.808 E.02143
G1 X127.649 Y115.4 E.02137
G1 X127.199 Y115.906 E.02124
G1 X126.647 Y116.313 E.02149
G1 X126.026 Y116.594 E.02137
G1 X125.36 Y116.74 E.02137
G1 X124.709 Y116.778 E.02046
G1 X124.023 Y116.713 E.0216
G1 X123.342 Y116.499 E.0224
G1 X122.707 Y116.14 E.02285
G1 X122.152 Y115.646 E.0233
G1 X121.705 Y115.035 E.02375
G1 X121.39 Y114.33 E.0242
G1 X121.227 Y113.561 E.02465
G1 X121.229 Y112.761 E.02511
G1 X121.381 Y112.038 E.02315
G1 X121.587 Y111.562 E.01628
G1 X121.823 Y111.18 E.01407
G1 X122.13 Y110.818 E.01489
G1 X122.672 Y110.329 E.02288
G1 X123.402 Y109.928 E.02613
G1 X123.857 Y109.79 E.0149
G1 X124.57 Y109.705 E.02251
G1 X125.061 Y109.723 E.0154
G1 X125.793 Y109.874 E.02344
G1 X126.502 Y110.182 E.02422
G1 X127.119 Y110.623 E.02377
G1 X127.619 Y111.173 E.02333
G1 X127.956 Y111.752 E.02098
M204 S1000
G1 X128.384 Y111.844 F10800
;WIPE_START
G1 F8640
G1 X128.208 Y112.483 E-.17866
G1 X128.279 Y113.211 E-.16896
G1 X128.193 Y114.157 E-.21914
G1 X127.986 Y114.808 E-.15779
G1 X127.91 Y114.941 E-.03545
;WIPE_END
G1 E-.04 F2100
G1 Z.6 F720
G1 X130.446 Y107.28 F10800
G1 Z.2 F720
G1 E.8 F2100
M204 S800
;TYPE:Solid infill
;WIDTH:0.426662
G1 F1200
G1 X131.053 Y107.886 E.02739
G1 X131.053 Y108.429 E.01732
G1 X130.073 Y107.449 E.04422
G1 X129.53 Y107.449 E.01732
G1 X131.053 Y108.972 E.06871
G1 X131.053 Y109.514 E.01732
G1 X128.988 Y107.449 E.09321
G1 X128.445 Y107.449 E.01732
G1 X131.053 Y110.057 E.1177
G1 X131.053 Y110.6 E.01732
M73 Q4 S12
G1 X127.902 Y107.449 E.1422
G1 X127.359 Y107.449 E.01732
M73 P4 R12
G1 X131.053 Y111.143 E.16669
G1 X131.053 Y111.685 E.01732
G1 X126.816 Y107.449 E.19118
G1 X126.274 Y107.448 E.01732
G1 X131.053 Y112.228 E.21568
G1 X131.053 Y112.771 E.01732
G1 X125.731 Y107.448 E.24017
G1 X125.188 Y107.448 E.01732
G1 X131.053 Y113.313 E.26466
G1 X131.053 Y113.856 E.01732
G1 X129.116 Y111.919 E.0874
G1 X129.197 Y112.172 E.00848
G1 X129.264 Y112.61 E.01412
G1 X131.053 Y114.399 E.08072
G1 X131.053 Y114.941 E.01732
G1 X129.315 Y113.203 E.07842
G1 X129.273 Y113.704 E.01603
G1 X131.053 Y115.484 E.08033
G1 X131.053 Y116.027 E.01732
G1 X129.227 Y114.2 E.08242
G1 X129.212 Y114.353 E.00489
G1 X129.123 Y114.64 E.00959
G1 X131.053 Y116.569 E.08708
G1 X131.053 Y117.112 E.01732
G1 X128.995 Y115.054 E.09287
G1 X128.829 Y115.43 E.01313
G1 X131.053 Y117.655 E.10038
G1 X131.053 Y118.198 E.01732
G1 X128.63 Y115.775 E.10934
G1 X128.414 Y116.102 E.0125
G1 X131.053 Y118.74 E.11907
G1 X131.053 Y119.283 E.01732
G1 X128.159 Y116.389 E.13059
G1 X127.895 Y116.668 E.01225
G1 X130.78 Y119.553 E.13019
G1 X130.238 Y119.553 E.01732
G1 X127.593 Y116.908 E.11936
G1 X127.278 Y117.136 E.0124
G1 X129.695 Y119.553 E.10906
G1 X129.152 Y119.553 E.01732
G1 X126.927 Y117.328 E.10041
G1 X126.552 Y117.495 E.01312
G1 X128.61 Y119.553 E.09286
G1 X128.067 Y119.553 E.01732
G1 X126.146 Y117.632 E.08669
G1 X125.692 Y117.721 E.01476
G1 X127.524 Y119.553 E.08269
G1 X126.982 Y119.553 E.01732
G1 X125.214 Y117.786 E.07975
G1 X124.691 Y117.806 E.0167
G1 X126.439 Y119.553 E.07886
G1 X125.896 Y119.553 E.01732
G1 X124.106 Y117.763 E.08079
G1 X123.673 Y117.694 E.01397
G1 X123.41 Y117.61 E.00881
G1 X125.523 Y119.723 E.09535
M204 S1000
;WIPE_START
G1 F8640
G1 X123.41 Y117.61 E-.68997
G1 X123.673 Y117.694 E-.06378
G1 X123.7 Y117.698 E-.00624
;WIPE_END
G1 E-.04 F2100
G1 Z.6 F720
G1 X126.375 Y109.178 F10800
G1 Z.2 F720
G1 E.8 F2100
M204 S800
G1 F1200
G1 X124.645 Y107.448 E.07808
G1 X124.102 Y107.448 E.01732
G1 X125.386 Y108.731 E.0579
G1 X125.069 Y108.683 E.01023
G1 X124.791 Y108.679 E.00886
G1 X123.56 Y107.448 E.05557
G1 X123.017 Y107.448 E.01732
G1 X124.267 Y108.698 E.0564
G1 X123.783 Y108.756 E.01556
G1 X122.474 Y107.448 E.05906
G1 X121.931 Y107.448 E.01732
G1 X123.345 Y108.861 E.0638
G1 X123.137 Y108.92 E.00688
G1 X122.942 Y109.001 E.00675
G1 X121.388 Y107.448 E.07011
G1 X120.846 Y107.447 E.01732
G1 X122.588 Y109.19 E.07862
G1 X122.236 Y109.38 E.01277
M73 Q5 S12
G1 X120.303 Y107.447 E.08723
G1 X119.76 Y107.447 E.01732
M73 P5 R12
G1 X121.923 Y109.61 E.0976
G1 X121.641 Y109.871 E.01225
G1 X119.217 Y107.447 E.10939
G1 X118.947 Y107.447 E.00862
G1 X118.947 Y107.72 E.0087
G1 X121.36 Y110.132 E.10888
G1 X121.268 Y110.218 E.00401
G1 X121.107 Y110.423 E.0083
G1 X118.947 Y108.262 E.09749
G1 X118.947 Y108.805 E.01732
G1 X120.877 Y110.735 E.0871
G1 X120.677 Y111.078 E.01267
G1 X118.947 Y109.348 E.07809
G1 X118.947 Y109.89 E.01732
G1 X120.506 Y111.449 E.07034
G1 X120.443 Y111.586 E.00479
G1 X120.361 Y111.847 E.00875
G1 X118.947 Y110.433 E.06382
G1 X118.947 Y110.976 E.01732
G1 X120.265 Y112.293 E.05946
G1 X120.218 Y112.507 E.00699
G1 X120.192 Y112.763 E.0082
G1 X118.947 Y111.518 E.05616
G1 X118.947 Y112.061 E.01732
G1 X120.187 Y113.302 E.05597
G1 X120.186 Y113.527 E.00719
G1 X120.237 Y113.894 E.01182
G1 X118.947 Y112.604 E.0582
G1 X118.947 Y113.146 E.01732
G1 X120.687 Y114.886 E.07852
M204 S1000
;WIPE_START
G1 F8640
G1 X118.947 Y113.146 E-.56819
G1 X118.947 Y112.604 E-.12531
G1 X119.151 Y112.807 E-.0665
;WIPE_END
G1 E-.04 F2100
G1 Z.6 F720
G1 X118.777 Y113.519 F10800
G1 Z.2 F720
G1 E.8 F2100
M204 S800
G1 F1200
G1 X124.811 Y119.553 E.27226
G1 X124.268 Y119.553 E.01732
G1 X118.947 Y114.232 E.24012
G1 X118.947 Y114.775 E.01732
G1 X123.725 Y119.553 E.21563
G1 X123.183 Y119.553 E.01732
G1 X118.947 Y115.317 E.19114
G1 X118.947 Y115.86 E.01732
G1 X122.64 Y119.553 E.16665
G1 X122.097 Y119.553 E.01732
G1 X118.947 Y116.403 E.14216
G1 X118.947 Y116.945 E.01732
G1 X121.555 Y119.553 E.11767
G1 X121.012 Y119.553 E.01732
G1 X118.947 Y117.488 E.09318
G1 X118.947 Y118.031 E.01732
G1 X120.469 Y119.553 E.06869
G1 X119.927 Y119.553 E.01732
G1 X118.947 Y118.573 E.04421
G1 X118.947 Y119.116 E.01732
G1 X119.554 Y119.723 E.02737
M204 S1000
; stop printing object croc_charm_prepared.stl_1 id:0 copy 0
; printing object croc_charm_prepared.stl_2 id:1 copy 0
;WIPE_START
G1 F8640
G1 X118.947 Y119.116 E-.19809
G1 X118.947 Y118.573 E-.12531
G1 X119.927 Y119.553 E-.31989
G1 X120.432 Y119.553 E-.11671
;WIPE_END
G1 E-.04 F2100
G1 Z.6 F720
G1 X125.455 Y90.517 F10800
G1 Z.2 F720
G1 E.8 F2100
M204 S800
;TYPE:Perimeter
;WIDTH:0.419999
G1 F1200
G1 X125.863 Y90.56 E.01286
G1 X126.465 Y90.747 E.01976
G1 X127.017 Y91.006 E.01913
G1 X127.54 Y91.373 E.02001
G1 X127.998 Y91.801 E.01966
G1 X128.38 Y92.308 E.01992
G1 X128.685 Y92.859 E.01975
G1 X128.892 Y93.459 E.01988
G1 X129.012 Y94.078 E.01979
G1 X129.023 Y94.712 E.01987
G1 X128.946 Y95.339 E.0198
G1 X128.761 Y95.945 E.01986
G1 X128.494 Y96.517 E.01981
G1 X128.13 Y97.036 E.01986
G1 X127.699 Y97.498 E.01981
G1 X127.193 Y97.879 E.01987
G1 X126.641 Y98.185 E.0198
G1 X126.041 Y98.392 E.01989
G1 X125.422 Y98.512 E.01978
G1 X124.786 Y98.523 E.01994
G1 X124.161 Y98.446 E.01973
G1 X123.549 Y98.258 E.02009
G1 X122.983 Y97.994 E.01958
G1 X122.424 Y97.598 E.02147
G1 X122.02 Y97.217 E.01742
G1 X121.679 Y96.748 E.01816
G1 X121.387 Y96.282 E.01725
G1 X121.163 Y95.747 E.0182
G1 X121.02 Y95.122 E.02009
G1 X120.966 Y94.5 E.01958
G1 X121.021 Y93.867 E.01994
G1 X121.163 Y93.253 E.01973
G1 X121.411 Y92.669 E.01989
G1 X121.736 Y92.129 E.01978
G1 X122.154 Y91.649 E.01994
G1 X122.629 Y91.236 E.01973
G1 X123.178 Y90.907 E.02009
G1 X123.753 Y90.663 E.01958
G1 X124.421 Y90.513 E.02147
G1 X124.975 Y90.467 E.01742
G1 X125.395 Y90.511 E.01324
M204 S1000
G1 X125.494 Y90.142 F10800
M204 S800
G1 F1200
G1 X126.191 Y90.258 E.02213
G1 X126.794 Y90.47 E.02006
G1 X127.406 Y90.809 E.02194
G1 X127.952 Y91.221 E.02144
G1 X128.426 Y91.73 E.02179
G1 X128.821 Y92.294 E.02159
G1 X129.114 Y92.923 E.02175
G1 X129.315 Y93.583 E.02164
M73 Q6 S12
G1 X129.4 Y94.271 E.02173
G1 X129.388 Y94.961 E.02166
G1 X129.255 Y95.641 E.02172
G1 X129.03 Y96.294 E.02167
G1 X128.695 Y96.9 E.02172
G1 X128.279 Y97.452 E.02167
G1 X127.772 Y97.925 E.02173
G1 X127.206 Y98.321 E.02166
M73 P6 R12
G1 X126.577 Y98.614 E.02174
G1 X125.917 Y98.815 E.02164
G1 X125.228 Y98.9 E.02177
G1 X124.539 Y98.888 E.02161
G1 X123.854 Y98.754 E.02187
G1 X123.206 Y98.53 E.02152
G1 X122.611 Y98.202 E.0213
G1 X122.187 Y97.891 E.01649
G1 X121.732 Y97.463 E.01959
G1 X121.33 Y96.909 E.02144
G1 X121.051 Y96.454 E.01676
G1 X120.804 Y95.863 E.02006
G1 X120.647 Y95.181 E.02194
G1 X120.588 Y94.5 E.02144
G1 X120.6 Y94.265 E.00737
