; generated by PrusaSlicer 2.9.2 on 2025-05-21 at 10:43:17 UTC


;
;
; 

; external perimeters extrusion width = 0.60mm
; perimeters extrusion width = 0.50mm
; infill extrusion width = 0.50mm
; solid infill extrusion width = 0.50mm
; top infill extrusion width = 0.45mm
; first layer extrusion width = 0.42mm

M73 P0 R19
M73 Q0 S19
M201 X1000 Y1000 Z200 E5000 ; sets maximum accelerations, mm/sec^2
M203 X200 Y200 Z12 E120 ; sets maximum feedrates, mm / sec
M204 S1250 T1250 ; sets acceleration (S) and retract acceleration (R), mm/sec^2
M205 X8.00 Y8.00 Z0.40 E4.50 ; sets the jerk limits, mm/sec
M205 S0 T0 ; sets the minimum extruding and travel feed rate, mm/sec

; printing object pound_coin.stl id:0 copy 1
; stop printing object pound_coin.stl id:0 copy 1
; printing object pound_coin.stl id:0 copy 2
; stop printing object pound_coin.stl id:0 copy 2
; printing object pound_coin.stl id:0 copy 3
; stop printing object pound_coin.stl id:0 copy 3
; printing object pound_coin.stl id:0 copy 14
; stop printing object pound_coin.stl id:0 copy 14
; printing object pound_coin.stl id:0 copy 12
; stop printing object pound_coin.stl id:0 copy 12
; printing object pound_coin.stl id:0 copy 4
; stop printing object pound_coin.stl id:0 copy 4
; printing object pound_coin.stl id:0 copy 7
; stop printing object pound_coin.stl id:0 copy 7
; printing object pound_coin.stl id:0 copy 8
; stop printing object pound_coin.stl id:0 copy 8
; printing object pound_coin.stl id:0 copy 9
; stop printing object pound_coin.stl id:0 copy 9
; printing object pound_coin.stl id:0 copy 10
; stop printing object pound_coin.stl id:0 copy 10
; printing object pound_coin.stl id:0 copy 15
; stop printing object pound_coin.stl id:0 copy 15
; printing object pound_coin.stl id:0 copy 0
; stop printing object pound_coin.stl id:0 copy 0
; printing object pound_coin.stl id:0 copy 13
; stop printing object pound_coin.stl id:0 copy 13
; printing object pound_coin.stl id:0 copy 5
; stop printing object pound_coin.stl id:0 copy 5
; printing object pound_coin.stl id:0 copy 6
; stop printing object pound_coin.stl id:0 copy 6
; printing object pound_coin.stl id:0 copy 11
; stop printing object pound_coin.stl id:0 copy 11

;TYPE:Custom
M862.3 P "MK3S" ; printer model check
M862.1 P0.4 ; nozzle diameter check
M115 U3.14.1 ; tell printer latest fw version
G90 ; use absolute coordinates
M83 ; extruder relative mode
M104 S240 ; set extruder temp
M140 S85 ; set bed temp
M190 S85 ; wait for bed temp
M109 S240 ; wait for extruder temp
G28 W ; home all without mesh bed level
G80 X68.3619 Y48.3619 W113.276 H113.276 ; mesh bed levelling

G1 Z0.2 F720
G1 Y-3 F1000 ; go outside print area
G92 E0
G1 X60 E9 F1000 ; intro line
G1 X100 E12.5 F1000 ; intro line

G92 E0
M221 S95

; Don't change E values below. Excessive value can damage the printer.

M907 E538 ; set extruder motor current
G21 ; set units to millimeters
G90 ; use absolute coordinates
M83 ; use relative distances for extrusion
M900 K0.08 ; Filament gcode LA 1.5
M900 K45 ; Filament gcode LA 1.0
M107
;LAYER_CHANGE
;Z:0.2
;HEIGHT:0.2
G1 E-1 F2100
G1 Z.4 F720
G1 X72.096 Y52.689 F10800
G1 Z.2 F720
G1 E1 F2100
M204 S800
;TYPE:Skirt/Brim
;WIDTH:0.42
G1 F1800
G1 X72.689 Y52.096 E.02629
G1 X74.505 Y50.88 E.06853
G1 X76.374 Y49.806 E.06759
G1 X78.202 Y48.913 E.06379
G1 X79.012 Y48.696 E.02629
G1 X81.042 Y48.556 E.0638
G1 X168.807 Y48.55 E2.75181
G1 X170.988 Y48.696 E.06854
G1 X171.798 Y48.913 E.02629
G1 X173.626 Y49.806 E.06379
G1 X175.286 Y50.759 E.06002
G1 X177.311 Y52.096 E.07608
G1 X177.904 Y52.689 E.02629
G1 X179.04 Y54.377 E.0638
G1 X180.123 Y56.241 E.06759
G1 X181.087 Y58.202 E.06851
G1 X181.304 Y59.012 E.02629
G1 X181.45 Y61.193 E.06854
G1 X181.444 Y148.958 E2.75181
G1 X181.304 Y150.988 E.0638
M73 P1 R18
M73 Q1 S19
G1 X181.087 Y151.798 E.02629
G1 X180.194 Y153.626 E.06379
G1 X179.12 Y155.495 E.06759
G1 X177.904 Y157.311 E.06853
G1 X177.311 Y157.904 E.02629
G1 X175.495 Y159.12 E.06853
G1 X173.626 Y160.194 E.06759
G1 X171.798 Y161.087 E.06379
G1 X170.988 Y161.304 E.02629
G1 X168.807 Y161.45 E.06854
G1 X81.042 Y161.444 E2.75181
G1 X79.012 Y161.304 E.0638
G1 X78.202 Y161.087 E.02629
G1 X76.374 Y160.194 E.06379
G1 X74.505 Y159.12 E.06759
G1 X72.689 Y157.904 E.06853
G1 X72.096 Y157.311 E.02629
G1 X70.88 Y155.495 E.06853
G1 X69.806 Y153.626 E.06759
G1 X68.913 Y151.798 E.06379
G1 X68.696 Y150.988 E.02629
G1 X68.55 Y148.807 E.06854
G1 X68.556 Y61.042 E2.75181
G1 X68.696 Y59.012 E.0638
G1 X68.913 Y58.202 E.02629
G1 X69.877 Y56.241 E.06851
G1 X70.96 Y54.377 E.06759
G1 X72.063 Y52.739 E.06192
M204 S1000
;WIPE_START
G1 F8640
G1 X72.096 Y52.689 E-.01383
G1 X72.689 Y52.096 E-.19364
G1 X74.505 Y50.88 E-.50464
G1 X75.586 Y50.259 E-.28789
;WIPE_END
G1 Z.4 F720
; printing object pound_coin.stl id:0 copy 6
G1 X72.019 Y60.541 F10800
G1 Z.2 F720
G1 E1 F2100
M204 S800
;TYPE:Perimeter
;WIDTH:0.501795
G1 F1800
G1 X72.106 Y60.051 E.01899
;WIDTH:0.537563
G1 X72.211 Y59.486 E.02364
G1 X72.385 Y59.008 E.02092
;WIDTH:0.501796
G1 X72.559 Y58.529 E.01945
;WIDTH:0.466026
G1 X72.848 Y57.891 E.02464
;WIDTH:0.450954
G1 X73.039 Y57.497 E.01486
;WIDTH:0.429011
G1 X73.548 Y56.615 E.03269
;WIDTH:0.462344
G1 X74.165 Y55.732 E.03757
;WIDTH:0.466027
G1 X74.203 Y55.683 E.00218
;WIDTH:0.501796
G1 X74.53 Y55.293 E.01942
;WIDTH:0.537564
G1 X74.903 Y54.857 E.0236
;WIDTH:0.537565
G1 X75.293 Y54.53 E.02093
;WIDTH:0.501795
G1 X75.683 Y54.203 E.01942
;WIDTH:0.466025
G1 X76.252 Y53.794 E.02465
;WIDTH:0.450955
G1 X76.615 Y53.548 E.01488
;WIDTH:0.429011
G1 X77.497 Y53.039 E.03269
;WIDTH:0.462343
G1 X78.473 Y52.583 E.03757
;WIDTH:0.466026
G1 X78.529 Y52.559 E.00214
;WIDTH:0.501795
G1 X79.008 Y52.385 E.01945
;WIDTH:0.537563
G1 X79.549 Y52.194 E.0236
G1 X80.051 Y52.106 E.02096
;WIDTH:0.501795
G1 X80.552 Y52.017 E.01942
;WIDTH:0.466026
G1 X81.249 Y51.948 E.02464
;WIDTH:0.450954
G1 X81.686 Y51.917 E.01486
;WIDTH:0.42901
G1 X82.704 Y51.917 E.03268
;WIDTH:0.462343
G1 X83.777 Y52.01 E.03756
;WIDTH:0.466025
G1 X83.838 Y52.017 E.00216
;WIDTH:0.501794
G1 X84.34 Y52.106 E.01945
;WIDTH:0.537563
G1 X84.904 Y52.211 E.0236
G1 X85.383 Y52.385 E.02096
;WIDTH:0.501796
G1 X85.861 Y52.559 E.01941
;WIDTH:0.466027
G1 X86.499 Y52.848 E.02464
;WIDTH:0.450954
G1 X86.894 Y53.039 E.01489
;WIDTH:0.42901
G1 X87.775 Y53.548 E.03266
;WIDTH:0.462344
G1 X88.658 Y54.165 E.03757
;WIDTH:0.466026
G1 X88.707 Y54.203 E.00218
;WIDTH:0.501795
G1 X89.097 Y54.53 E.01942
;WIDTH:0.537564
G1 X89.534 Y54.903 E.02363
G1 X89.861 Y55.293 E.02093
;WIDTH:0.501794
G1 X90.188 Y55.683 E.01942
;WIDTH:0.466025
G1 X90.596 Y56.252 E.02463
;WIDTH:0.450953
G1 X90.842 Y56.615 E.01488
;WIDTH:0.429009
G1 X91.351 Y57.497 E.03269
;WIDTH:0.462344
G1 X91.807 Y58.473 E.03757
;WIDTH:0.466026
G1 X91.831 Y58.529 E.00214
;WIDTH:0.501795
G1 X92.005 Y59.008 E.01945
;WIDTH:0.537563
G1 X92.18 Y59.486 E.02094
G1 X92.285 Y60.051 E.02364
;WIDTH:0.501794
G1 X92.373 Y60.552 E.01941
;WIDTH:0.466026
G1 X92.442 Y61.249 E.02464
;WIDTH:0.450954
G1 X92.474 Y61.686 E.01487
;WIDTH:0.42901
G1 X92.474 Y62.704 E.03268
;WIDTH:0.462343
G1 X92.381 Y63.777 E.03756
;WIDTH:0.466025
G1 X92.373 Y63.838 E.00216
;WIDTH:0.501794
G1 X92.285 Y64.34 E.01945
;WIDTH:0.537563
G1 X92.18 Y64.904 E.0236
G1 X92.005 Y65.383 E.02097
;WIDTH:0.501795
G1 X91.831 Y65.861 E.01941
;WIDTH:0.466025
G1 X91.542 Y66.499 E.02464
;WIDTH:0.450954
G1 X91.351 Y66.894 E.01489
;WIDTH:0.42901
G1 X90.842 Y67.775 E.03266
;WIDTH:0.462345
G1 X90.225 Y68.658 E.03757
;WIDTH:0.466027
G1 X90.188 Y68.707 E.00216
;WIDTH:0.501796
G1 X89.861 Y69.097 E.01942
;WIDTH:0.537565
G1 X89.487 Y69.534 E.02366
G1 X89.097 Y69.861 E.02093
;WIDTH:0.501794
G1 X88.707 Y70.188 E.01942
M73 P2 R18
;WIDTH:0.466025
G1 X88.138 Y70.596 E.02463
;WIDTH:0.450954
G1 X87.775 Y70.842 E.01488
;WIDTH:0.429011
G1 X86.894 Y71.351 E.03266
;WIDTH:0.461545
G1 X85.959 Y71.789 E.03594
M73 Q2 S19
;WIDTH:0.464978
G1 X85.904 Y71.812 E.00209
;WIDTH:0.502411
G1 X85.395 Y71.999 E.02072
;WIDTH:0.539843
G1 X84.841 Y72.196 E.0243
;WIDTH:0.537567
G1 X84.34 Y72.285 E.02093
;WIDTH:0.501797
G1 X83.838 Y72.373 E.01945
;WIDTH:0.466026
G1 X83.141 Y72.442 E.02464
;WIDTH:0.450954
G1 X82.704 Y72.474 E.01487
;WIDTH:0.429011
G1 X81.686 Y72.474 E.03268
;WIDTH:0.462345
G1 X80.613 Y72.381 E.03756
;WIDTH:0.466026
G1 X80.552 Y72.373 E.00216
;WIDTH:0.501795
G1 X80.051 Y72.285 E.01941
;WIDTH:0.537564
G1 X79.486 Y72.18 E.02364
G1 X79.008 Y72.005 E.02094
;WIDTH:0.501796
G1 X78.529 Y71.831 E.01945
;WIDTH:0.466027
G1 X77.891 Y71.542 E.02464
;WIDTH:0.450955
G1 X77.497 Y71.351 E.01486
;WIDTH:0.42901
G1 X76.615 Y70.842 E.03269
;WIDTH:0.462345
G1 X75.732 Y70.225 E.03757
;WIDTH:0.466026
G1 X75.683 Y70.188 E.00216
;WIDTH:0.501796
G1 X75.293 Y69.861 E.01942
;WIDTH:0.537565
G1 X74.903 Y69.534 E.02093
G1 X74.53 Y69.097 E.02363
;WIDTH:0.501794
G1 X74.203 Y68.707 E.01942
;WIDTH:0.466025
G1 X73.794 Y68.138 E.02465
;WIDTH:0.450954
G1 X73.548 Y67.775 E.01488
;WIDTH:0.429011
G1 X73.039 Y66.894 E.03266
;WIDTH:0.460961
G1 X72.584 Y65.918 E.03743
;WIDTH:0.464723
G1 X72.56 Y65.861 E.00217
;WIDTH:0.501028
G1 X72.385 Y65.383 E.01939
;WIDTH:0.537332
G1 X72.211 Y64.904 E.02095
;WIDTH:0.537563
G1 X72.106 Y64.34 E.0236
;WIDTH:0.501795
G1 X72.017 Y63.838 E.01945
;WIDTH:0.466026
G1 X71.948 Y63.141 E.02464
;WIDTH:0.450956
G1 X71.917 Y62.704 E.01486
;WIDTH:0.429011
G1 X71.917 Y61.686 E.03268
;WIDTH:0.462343
G1 X72.01 Y60.613 E.03756
;WIDTH:0.466026
G1 X72.011 Y60.6 E.00046
M204 S1000
G1 X72.412 Y60.624 F10800
M204 S800
;TYPE:External perimeter
;WIDTH:0.419999
G1 F1800
G1 X72.62 Y59.64 E.03153
G1 X72.94 Y58.653 E.03253
G1 X73.207 Y58.051 E.02065
G1 X73.37 Y57.687 E.0125
G1 X73.879 Y56.806 E.0319
G1 X74.487 Y55.966 E.03251
G1 X75.195 Y55.181 E.03314
G1 X75.951 Y54.5 E.0319
G1 X76.806 Y53.879 E.03313
G1 X77.687 Y53.37 E.0319
G1 X78.635 Y52.947 E.03255
G1 X79.621 Y52.625 E.03252
G1 X80.635 Y52.409 E.03251
G1 X81.686 Y52.298 E.03314
M73 Q2 S18
G1 X82.704 Y52.298 E.03192
G1 X83.736 Y52.406 E.03253
G1 X84.751 Y52.62 E.03252
G1 X85.737 Y52.94 E.0325
G1 X86.34 Y53.207 E.02068
G1 X86.703 Y53.37 E.01248
G1 X87.584 Y53.879 E.0319
G1 X88.424 Y54.487 E.03251
G1 X89.21 Y55.195 E.03317
G1 X89.891 Y55.951 E.0319
G1 X90.512 Y56.806 E.03313
G1 X91.021 Y57.687 E.0319
G1 X91.443 Y58.635 E.03254
G1 X91.765 Y59.621 E.03252
G1 X91.982 Y60.635 E.03251
G1 X92.092 Y61.686 E.03313
G1 X92.092 Y62.704 E.03192
G1 X91.985 Y63.736 E.03253
G1 X91.77 Y64.751 E.03253
G1 X91.451 Y65.737 E.03249
G1 X91.184 Y66.339 E.02065
G1 X91.021 Y66.703 E.0125
G1 X90.512 Y67.584 E.0319
G1 X89.903 Y68.424 E.03253
G1 X89.196 Y69.21 E.03315
G1 X88.439 Y69.891 E.03193
G1 X87.584 Y70.512 E.03313
G1 X86.703 Y71.021 E.0319
G1 X85.779 Y71.432 E.03171
G1 X84.77 Y71.765 E.03331
G1 X83.755 Y71.982 E.03254
G1 X82.704 Y72.092 E.03313
G1 X81.686 Y72.092 E.03192
G1 X80.655 Y71.985 E.0325
G1 X79.64 Y71.77 E.03253
G1 X78.653 Y71.451 E.03252
G1 X78.051 Y71.184 E.02065
G1 X77.687 Y71.021 E.0125
G1 X76.806 Y70.512 E.0319
G1 X75.966 Y69.903 E.03253
G1 X75.181 Y69.196 E.03312
G1 X74.5 Y68.439 E.03193
G1 X73.879 Y67.584 E.03313
G1 X73.37 Y66.703 E.0319
G1 X72.94 Y65.737 E.03315
G1 X72.62 Y64.751 E.0325
G1 X72.409 Y63.755 E.03192
G1 X72.298 Y62.704 E.03314
G1 X72.298 Y61.686 E.03192
G1 X72.403 Y60.683 E.03162
M204 S1000
;WIPE_START
G1 F8640
G1 X72.412 Y60.624 E-.01378
G1 X72.62 Y59.64 E-.23223
G1 X72.94 Y58.653 E-.23958
G1 X73.207 Y58.051 E-.15206
G1 X73.37 Y57.687 E-.09209
G1 X73.879 Y56.806 E-.23494
G1 X73.969 Y56.682 E-.03532
;WIPE_END
G1 Z.4 F720
G1 X74.534 Y69.857 F10800
G1 Z.2 F720
G1 E1 F2100
M204 S800
;TYPE:Perimeter
;WIDTH:0.537562
G1 F1800
G1 X74.468 Y69.791 E.00384
G1 X74.169 Y69.379 E.02094
;WIDTH:0.501794
G1 X73.87 Y68.967 E.01942
;WIDTH:0.466025
G1 X73.822 Y68.899 E.00293
;WIDTH:0.462343
G1 X73.214 Y67.968 E.03878
;WIDTH:0.429011
G1 X72.705 Y67.087 E.03266
;WIDTH:0.447746
G1 X72.508 Y66.726 E.01384
;WIDTH:0.464723
G1 X72.17 Y66.019 E.02748
;WIDTH:0.501028
G1 X71.962 Y65.554 E.0194
;WIDTH:0.537332
G1 X71.754 Y65.09 E.0209
;WIDTH:0.537563
G1 X71.705 Y64.91 E.00767
G1 X71.652 Y64.403 E.02097
;WIDTH:0.501795
G1 X71.599 Y63.897 E.01941
;WIDTH:0.466026
G1 X71.592 Y63.814 E.00293
;WIDTH:0.462345
G1 X71.531 Y62.704 E.03877
;WIDTH:0.429011
G1 X71.531 Y61.686 E.03268
;WIDTH:0.450954
G1 X71.542 Y61.214 E.01602
;WIDTH:0.466026
G1 X71.599 Y60.493 E.02544
;WIDTH:0.501795
G1 X71.652 Y59.987 E.01941
;WIDTH:0.537566
G1 X71.705 Y59.481 E.02093
G1 X71.753 Y59.301 E.00766
G1 X71.961 Y58.836 E.02095
;WIDTH:0.501796
G1 X72.168 Y58.371 E.01942
;WIDTH:0.466026
G1 X72.203 Y58.295 E.00294
;WIDTH:0.462345
G1 X72.705 Y57.303 E.03877
;WIDTH:0.429011
G1 X73.214 Y56.422 E.03266
;WIDTH:0.450956
G1 X73.46 Y56.018 E.01605
;WIDTH:0.466027
G1 X73.87 Y55.423 E.02542
;WIDTH:0.501796
G1 X74.169 Y55.011 E.01942
;WIDTH:0.537565
G1 X74.468 Y54.599 E.02094
G1 X74.599 Y54.468 E.00762
G1 X75.011 Y54.169 E.02094
;WIDTH:0.501795
G1 X75.424 Y53.87 E.01945
;WIDTH:0.466025
G1 X75.492 Y53.822 E.00293
;WIDTH:0.462344
G1 X76.422 Y53.214 E.03875
;WIDTH:0.429011
G1 X77.304 Y52.705 E.03269
;WIDTH:0.450955
G1 X77.719 Y52.478 E.01605
;WIDTH:0.466026
G1 X78.371 Y52.168 E.0254
;WIDTH:0.501795
G1 X78.836 Y51.961 E.01942
;WIDTH:0.537563
G1 X79.301 Y51.753 E.02095
G1 X79.481 Y51.705 E.00766
G1 X79.987 Y51.652 E.02093
;WIDTH:0.501795
G1 X80.493 Y51.599 E.01941
;WIDTH:0.466026
G1 X80.577 Y51.592 E.00297
;WIDTH:0.462345
G1 X81.686 Y51.531 E.03874
;WIDTH:0.42901
G1 X82.704 Y51.531 E.03268
;WIDTH:0.450954
G1 X83.177 Y51.542 E.01605
;WIDTH:0.466025
G1 X83.897 Y51.599 E.02541
;WIDTH:0.501794
G1 X84.403 Y51.652 E.01941
;WIDTH:0.537564
G1 X84.91 Y51.705 E.02097
G1 X85.089 Y51.753 E.00762
G1 X85.554 Y51.961 E.02095
;WIDTH:0.501796
G1 X86.019 Y52.168 E.01942
;WIDTH:0.466027
G1 X86.095 Y52.203 E.00294
;WIDTH:0.462346
G1 X87.087 Y52.705 E.03877
;WIDTH:0.42901
G1 X87.968 Y53.214 E.03266
;WIDTH:0.450954
G1 X88.372 Y53.46 E.01605
;WIDTH:0.466026
G1 X88.967 Y53.87 E.02542
;WIDTH:0.501795
G1 X89.379 Y54.169 E.01942
;WIDTH:0.537562
G1 X89.791 Y54.468 E.02094
G1 X89.922 Y54.599 E.00762
G1 X90.222 Y55.011 E.02096
;WIDTH:0.501794
G1 X90.521 Y55.423 E.01942
;WIDTH:0.466025
G1 X90.569 Y55.492 E.00296
;WIDTH:0.462342
G1 X91.177 Y56.422 E.03875
;WIDTH:0.429009
G1 X91.685 Y57.303 E.03265
;WIDTH:0.450953
G1 X91.912 Y57.719 E.01608
;WIDTH:0.466026
G1 X92.222 Y58.371 E.0254
;WIDTH:0.501795
G1 X92.43 Y58.836 E.01944
;WIDTH:0.537562
G1 X92.637 Y59.301 E.02093
G1 X92.685 Y59.481 E.00766
G1 X92.738 Y59.987 E.02093
;WIDTH:0.501794
G1 X92.791 Y60.493 E.01941
;WIDTH:0.466026
G1 X92.799 Y60.577 E.00297
;WIDTH:0.462345
G1 X92.849 Y61.228 E.02277
;WIDTH:0.450954
G1 X92.86 Y61.686 E.01554
;WIDTH:0.42901
G1 X92.86 Y62.704 E.03268
;WIDTH:0.450955
G1 X92.848 Y63.177 E.01605
;WIDTH:0.466025
G1 X92.791 Y63.897 E.02541
;WIDTH:0.501794
G1 X92.738 Y64.403 E.01941
;WIDTH:0.537564
G1 X92.685 Y64.91 E.02097
G1 X92.637 Y65.089 E.00762
G1 X92.43 Y65.554 E.02093
;WIDTH:0.501795
G1 X92.222 Y66.019 E.01944
;WIDTH:0.466025
G1 X92.187 Y66.095 E.00294
;WIDTH:0.462343
G1 X91.685 Y67.087 E.03877
;WIDTH:0.42901
G1 X91.177 Y67.968 E.03265
;WIDTH:0.450955
G1 X90.93 Y68.372 E.01607
;WIDTH:0.466027
G1 X90.521 Y68.967 E.0254
;WIDTH:0.501796
G1 X90.222 Y69.379 E.01942
;WIDTH:0.537563
G1 X89.922 Y69.791 E.02096
G1 X89.791 Y69.922 E.00762
G1 X89.379 Y70.222 E.02096
;WIDTH:0.501794
G1 X88.967 Y70.521 E.01942
;WIDTH:0.466025
G1 X88.899 Y70.569 E.00293
;WIDTH:0.462343
G1 X87.968 Y71.177 E.03878
;WIDTH:0.429011
G1 X87.087 Y71.685 E.03265
;WIDTH:0.450952
G1 X86.672 Y71.912 E.01605
;WIDTH:0.464978
G1 X86.063 Y72.202 E.02367
;WIDTH:0.501135
G1 X85.578 Y72.418 E.02023
;WIDTH:0.537292
G1 X85.093 Y72.635 E.02184
;WIDTH:0.537567
G1 X84.91 Y72.685 E.0078
G1 X84.403 Y72.738 E.02097
;WIDTH:0.501797
G1 X83.897 Y72.791 E.01941
;WIDTH:0.466026
G1 X83.814 Y72.799 E.00293
;WIDTH:0.462344
G1 X82.704 Y72.86 E.03877
;WIDTH:0.429011
G1 X81.686 Y72.86 E.03268
;WIDTH:0.450955
G1 X81.214 Y72.848 E.01602
;WIDTH:0.466026
G1 X80.493 Y72.791 E.02544
;WIDTH:0.501795
G1 X79.987 Y72.738 E.01941
;WIDTH:0.537564
G1 X79.481 Y72.685 E.02093
G1 X79.301 Y72.637 E.00766
G1 X78.836 Y72.43 E.02093
;WIDTH:0.501796
